X: 030796
T: Choulis
S: "Music of Ireland - The Big Session" (DJ Taylor)
Z: B.Black
L: 1/8
M: 6/8
R: jig
K: G
A|BdG GdB|ceA Adc|BdG GdB|cAG FGA|
BdG BdG|ceA ceA|ded cAd|GAG AB :|
d|fd/^c/d efg|afd dcA|gfg bag|afd d2 e|
=fed e^fg|afd dcA|BdB cAd|GAG G2 :|
B|d^cd gdB|d2 d gdB|cBc ABc|ABc ABc|
d^cd gdB|d2 d gdc|B/c/dB cAd|GAG G2 :|
